artwork/resources/intui/icons/shell/filetree/database-file.svg

<svg width="16" height="16" viewBox="0 0 16 16" fill="none" xmlns="http://www.w3.org/2000/svg">
<path d="M11 10.5C11.8672 10.5 12.6731 10.3836 13.2794 10.1814C13.58 10.0813 13.8593 9.95094 14.0737 9.78195C14.2825 9.6174 14.5 9.35694 14.5 9C14.5 8.64306 14.2825 8.3826 14.0737 8.21805C13.8593 8.04906 13.58 7.91874 13.2794 7.81855C12.6731 7.61643 11.8672 7.5 11 7.5C10.1328 7.5 9.32692 7.61643 8.72057 7.81855C8.42 7.91874 8.1407 8.04906 7.92627 8.21805C7.71747 8.3826 7.5 8.64306 7.5 9C7.5 9.35694 7.71747 9.6174 7.92627 9.78195C8.1407 9.95094 8.42 10.0813 8.72057 10.1814C9.32692 10.3836 10.1328 10.5 11 10.5Z" stroke="#4285F4"/>
<path d="M7.5 9V13" stroke="#4285F4" stroke-linecap="round"/>
<path d="M14.5 9V13" stroke="#4285F4" stroke-linecap="round"/>
<path fill-rule="evenodd" clip-rule="evenodd" d="M11 15C11.906 15 12.7677 14.8791 13.4375 14.6558C13.7672 14.5459 14.1062 14.393 14.3832 14.1747C14.649 13.9652 15 13.5758 15 13C15 12.4242 14.649 12.0348 14.3832 11.8254C14.2649 11.7321 14.1353 11.6508 14 11.5797V13C14 13.5523 12.6569 14 11 14C9.34315 14 8 13.5523 8 13V11.5797C7.86467 11.6508 7.73508 11.7321 7.61678 11.8254C7.351 12.0348 7 12.4242 7 13C7 13.5758 7.351 13.9652 7.61678 14.1747C7.89384 14.393 8.23277 14.5459 8.56245 14.6558C9.23227 14.8791 10.094 15 11 15Z" fill="#4285F4"/>
<path fill-rule="evenodd" clip-rule="evenodd" d="M11 13C11.906 13 12.7677 12.8791 13.4375 12.6558C13.7672 12.5459 14.1062 12.393 14.3832 12.1747C14.649 11.9652 15 11.5758 15 11C15 10.4242 14.649 10.0348 14.3832 9.82536C14.2649 9.73213 14.1353 9.65083 14 9.57971V11C14 11.5523 12.6569 12 11 12C9.34315 12 8 11.5523 8 11V9.57971C7.86467 9.65083 7.73508 9.73213 7.61678 9.82536C7.351 10.0348 7 10.4242 7 11C7 11.5758 7.351 11.9652 7.61678 12.1747C7.89384 12.393 8.23277 12.5459 8.56245 12.6558C9.23227 12.8791 10.094 13 11 13Z" fill="#4285F4"/>
<path fill-rule="evenodd" clip-rule="evenodd" d="M6.91421 1C6.51639 1 6.13486 1.15804 5.85355 1.43934L2.43934 4.85355C2.15803 5.13486 2 5.51639 2 5.91421V13.5C2 14.3284 2.67157 15 3.5 15H6V14H3.5C3.22386 14 3 13.7761 3 13.5V6H5.5C6.32843 6 7 5.32843 7 4.5V2H10.5C10.7761 2 11 2.22386 11 2.5V6H12V2.5C12 1.67157 11.3284 1 10.5 1H6.91421ZM3.70711 5L6 2.70711V4.5C6 4.77614 5.77614 5 5.5 5H3.70711Z" fill="#6C707E"/>
</svg>

<svg width="16" height="16" viewBox="0 0 16 16" fill="none" xmlns="http://www.w3.org/2000/svg"><path d="M11 10.5c.867 0 1.673-.116 2.28-.319.3-.1.58-.23.794-.399.209-.165.426-.425.426-.782 0-.357-.217-.617-.426-.782a2.645 2.645 0 0 0-.795-.4C12.673 7.617 11.867 7.5 11 7.5s-1.673.116-2.28.319c-.3.1-.58.23-.794.399-.209.165-.426.425-.426.782 0 .357.217.617.426.782.215.169.494.3.795.4.606.202 1.412.318 2.279.318z" stroke="#4285F4"/><path d="M7.5 9v4M14.5 9v4" stroke="#4285F4" stroke-linecap="round"/><path fill-rule="evenodd" clip-rule="evenodd" d="M11 15c.906 0 1.768-.12 2.438-.344.33-.11.668-.263.945-.481.266-.21.617-.6.617-1.175 0-.576-.351-.965-.617-1.175A2.484 2.484 0 0 0 14 11.58V13c0 .552-1.343 1-3 1s-3-.448-3-1v-1.42a2.483 2.483 0 0 0-.383.245C7.35 12.035 7 12.425 7 13c0 .576.351.965.617 1.175.277.218.616.37.945.48.67.224 1.532.345 2.438.345z" fill="#4285F4"/><path fill-rule="evenodd" clip-rule="evenodd" d="M11 13c.906 0 1.768-.12 2.438-.344.33-.11.668-.263.945-.481.266-.21.617-.6.617-1.175 0-.576-.351-.965-.617-1.175A2.49 2.49 0 0 0 14 9.58V11c0 .552-1.343 1-3 1s-3-.448-3-1V9.58a2.49 2.49 0 0 0-.383.245C7.35 10.035 7 10.425 7 11c0 .576.351.965.617 1.175.277.218.616.37.945.48.67.224 1.532.345 2.438.345z" fill="#4285F4"/><path fill-rule="evenodd" clip-rule="evenodd" d="M6.914 1a1.5 1.5 0 0 0-1.06.44L2.439 4.853A1.5 1.5 0 0 0 2 5.914V13.5A1.5 1.5 0 0 0 3.5 15H6v-1H3.5a.5.5 0 0 1-.5-.5V6h2.5A1.5 1.5 0 0 0 7 4.5V2h3.5a.5.5 0 0 1 .5.5V6h1V2.5A1.5 1.5 0 0 0 10.5 1H6.914zM3.707 5L6 2.707V4.5a.5.5 0 0 1-.5.5H3.707z" fill="#6C707E"/></svg>
